X:1
T:Hail! Blessèd Christmas Day
T:Hail! Blessèd Christmas Day
T:Lewis Henry Redner
T:William H. Neilson, Jr., 1882 
T:Public Domain Courtesy of the Cyber Hymnal™
T:Public Domain Courtesy of the Cyber Hymnal™
C:Lewis Henry Redner
Z:Public Domain
Z:Courtesy of the Cyber Hymnal™
%%score ( 1 2 ) ( 3 4 )
L:1/8
Q:1/4=140
M:3/4
K:Eb
V:1 treble 
V:2 treble 
V:3 bass 
V:4 bass 
V:1
 (E2 G2 B2) | [Ge]4 [Gd]2 | ([Ac]2 [EA]2) [Ec]2 | [EB]4 [EB]2 | [GB]4 [FA]2 | ([DF]2 [EG]2) [FA]2 | %6
w: 1.~Hail! * *|bless- èd|Christ- * mas|day, When|an- gels|bright, * who|
w: 2.~Hail! * *|hap- py|Christ- * mas|day, Child-|ren, re-|joice, * with|
w: 3.~Hail! * *|mer- ry|Christ- * mas|day! The|load- ed|tree, * bright|
w: 4.~Hail! * *|ho- ly|Christ- * mas|day! De-|vout- ly|raise * your|
 [Ec]4 [EB]2 | [EB]4 [_DG]2 | [DF]4 [DB]2 | (c2 G2) [E=A]2 | !fermata![DB]6 | [FB]2 [FB]2 [FB]2 | %12
w: came by|night, Once|sang this|joy- * ful|lay,|“Glo- ry to|
w: heart and|voice— Chase|all sad|thoughts * a-|way.|Je- sus was|
w: let it|be With|toys and|can- * dle|ray;|A- midst these|
w: grate- ful|lays; With|rev- erent|spir- * it|pray|That God would|
 (d2 c2) [FB]2 | [Ee]4 [GB]2 | [EG]4 E2 | [FB]4 [FB]2 | (d2 c2) [FB]2 | ([Ge]2 [EG]2) [E=A]2 | %18
w: God, * and|peace on|earth, Good-|will to|men” * at|Je- * sus’|
w: born * your|souls to|bless, To|cleanse them|from * un-|right- * eous-|
w: gifts, * re-|mem- ber|too, The|pre- cious|gift * God|gave * to|
w: make * each|lit- tle|one A|fol- lower|of * His|own * dear|
 !fermata![DB]4 E2 | (E2 G2) [EB]2 | [Ge]4 [Gd]2 | ([Ac]2 [EA]2) [Ec]2 | [EB]6 | %23
w: birth; Then|sing * a-|loud the|glad * re-|frain:|
w: ness. Then|sing * a-|loud the|glad * re-|frain:|
w: you. Then|sing * a-|loud the|glad * re-|frain,|
w: Son. Then|all * pro-|long the|glad * re-|frain:|
 [Ge]2 [Ae]2 [Be]2 | [ce]4 [Ac]2 | [GB]4 [DA]2 | [EG]6 | [Ge]2 [Ae]2 [Be]2 | [ce]4 (cA) | %29
w: Hail! bless- èd|Christ- mas,|back a-|gain!|Hail! bless- èd|Christ- mas, *|
w: Hail! hap- py|Christ- mas,|back a-|gain!|Hail! hap- py|Christ- mas, *|
w: Hail! mer- ry|Christ- mas,|back a-|gain!|Hail! mer- ry|Christ- mas, *|
w: Hail! ho- ly|Christ- mas,|back a-|gain!|Hail! ho- ly|Christ- mas, *|
 B4 [FB]2 | [EB]6 |] %31
w: back a-|gain!|
w: back a-|gain!|
w: back a-|gain!|
w: back a-|gain!|
V:2
 E6 | x6 | x6 | x6 | x6 | x6 | x6 | x6 | x6 | E4 x2 | x6 | x6 | F4 x2 | x6 | x4 E2 | x6 | F4 x2 | %17
 x6 | x4 E2 | E4 x2 | x6 | x6 | x6 | x6 | x6 | x6 | x6 | x6 | x4 E2 | (E2 DE) x2 | x6 |] %31
V:3
 (G,2 B,2 G,2) | [E,B,]4 [E,B,]2 | ([E,C]4 [E,A,]2) | [E,G,]4 [E,G,]2 | [B,,B,]4 [B,,B,]2 | %5
 [B,,B,]4 [B,,B,]2 | [E,A,]4 [E,G,]2 | [E,G,]4 [=E,B,]2 | [F,B,]4 [F,B,]2 | (=A,2 B,2) [F,C]2 | %10
 !fermata![B,,B,]6 | [A,D]2 [A,D]2 [A,D]2 | (B,2 C2) [A,D]2 | (E2 G,2) [E,B,]2 | [E,B,]4 [G,B,]2 | %15
 [A,D]4 [A,D]2 | (B,2 C2) [A,D]2 | ([G,B,]2 [C,C]2) [F,C]2 | !fermata![B,,B,]4 [E,G,]2 | %19
 (G,2 B,2) [E,G,]2 | [E,B,]4 [E,B,]2 | [E,C]4 [E,A,]2 | [E,G,]6 | [E,B,]2 [F,B,]2 [G,B,]2 | %24
 A,4 [A,E]2 | E2 B,2 [B,,B,]2 | [E,B,]6 | [E,B,]2 [F,B,]2 [G,B,]2 | A,4 [A,,A,]2 | %29
 (G,2 F,G,) [B,,A,]2 | [E,G,]6 |] %31
V:4
 E,6 | x6 | x6 | x6 | x6 | x6 | x6 | x6 | x6 | F,4 x2 | x6 | x6 | A,4 x2 | G,4 x2 | x6 | x6 | %16
 A,4 x2 | x6 | x6 | E,4 x2 | x6 | x6 | x6 | x6 | A,4 x2 | B,4 x2 | x6 | x6 | A,4 x2 | B,,4 x2 | %30
 x6 |] %31

